src/components/00-materials/images-raw/Warehouse Fire.svg

<svg width="96" height="96" viewBox="0 0 96 96" fill="none" xmlns="http://www.w3.org/2000/svg">
<path d="M58.19 71.37H11M11 71.37V27.24C11.0032 26.979 11.0601 26.7214 11.1673 26.4834C11.2745 26.2453 11.4295 26.0319 11.6228 25.8565C11.8161 25.681 12.0435 25.5473 12.2907 25.4636C12.538 25.3799 12.7999 25.348 13.06 25.37H68.4M11 71.37H5" stroke="#00008F" stroke-width="2" stroke-linecap="round" stroke-linejoin="round"/>
<path d="M18 33.3701H26V39.3701H18V33.3701ZM32 33.3701H40V39.3701H32V33.3701ZM46 33.3701H54V39.3701H46V33.3701ZM62 39.3701V33.3701H66L62 39.3701ZM18 45.3701H26V51.3701H18V45.3701ZM32 45.3701H40V51.3701H32V45.3701ZM54.45 51.3701H46V45.3701H53.64L54.45 51.3701ZM22 58.3601H37V71.3601H22V58.3601Z" stroke="#00008F" stroke-width="2" stroke-linecap="round" stroke-linejoin="round"/>
<path d="M68.8 75.3799C66.13 73.5799 63.47 69.9899 63.47 62.8099C63.4149 57.093 65.3366 51.5327 68.91 47.0699C68.91 47.0699 68.49 61.4799 72.35 62.8099C75.9 63.7099 74.12 53.8099 74.12 53.8099C74.12 53.8099 80.34 56.8099 80.34 63.6899C80.2 67.9199 79.45 71.7699 75.9 75.3599C85.67 75.3599 91 61.8599 91 50.2199C91 50.2199 87.45 57.3999 85.67 55.6099C83.89 53.8199 87.45 50.2199 87.45 44.8399C87.3317 40.257 85.5552 35.8726 82.45 32.4999C83.9 40.7699 75 46.6499 75 46.6499C75 46.6499 79.44 29.6499 68.38 20.6499C70.57 34.9999 62.88 34.9999 61.47 43.4899C61.47 43.4899 57.71 40.4399 57.18 33.9499C48.37 43.9499 59.91 63.7099 56.36 61.9499C54.59 60.9999 52.81 59.2199 51 55.6299C50.19 70.8799 65.24 75.3799 68.8 75.3799Z" stroke="#00008F" stroke-width="2" stroke-linecap="round" stroke-linejoin="round"/>
</svg>

<svg width="96" height="96" viewBox="0 0 96 96" fill="none" xmlns="http://www.w3.org/2000/svg"><path d="M58.19 71.37H11m0 0V27.24a1.899 1.899 0 012.06-1.87H68.4m-57.4 46H5" stroke="#00008F" stroke-width="2" stroke-linecap="round" stroke-linejoin="round"/><path d="M18 33.37h8v6h-8v-6zm14 0h8v6h-8v-6zm14 0h8v6h-8v-6zm16 6v-6h4l-4 6zm-44 6h8v6h-8v-6zm14 0h8v6h-8v-6zm22.45 6H46v-6h7.64l.81 6zM22 58.36h15v13H22v-13z" stroke="#00008F" stroke-width="2" stroke-linecap="round" stroke-linejoin="round"/><path d="M68.8 75.38c-2.67-1.8-5.33-5.39-5.33-12.57a24.8 24.8 0 015.44-15.74s-.42 14.41 3.44 15.74c3.55.9 1.77-9 1.77-9s6.22 3 6.22 9.88c-.14 4.23-.89 8.08-4.44 11.67 9.77 0 15.1-13.5 15.1-25.14 0 0-3.55 7.18-5.33 5.39-1.78-1.79 1.78-5.39 1.78-10.77a18.94 18.94 0 00-5-12.34C83.9 40.77 75 46.65 75 46.65s4.44-17-6.62-26C70.57 35 62.88 35 61.47 43.49c0 0-3.76-3.05-4.29-9.54-8.81 10 2.73 29.76-.82 28-1.77-.95-3.55-2.73-5.36-6.32-.81 15.25 14.24 19.75 17.8 19.75z" stroke="#00008F" stroke-width="2" stroke-linecap="round" stroke-linejoin="round"/></svg>
